www/assets/icons/graphic_eq.svg

<svg xmlns="http://www.w3.org/2000/svg" width="24" height="24" viewBox="0 0 24 24" fill='currentColor'><path d="M7 18h2V6H7zm4 4h2V2h-2zm-8-8h2v-4H3zm12 4h2V6h-2zm4-8v4h2v-4z"/></svg>

<svg width="24" height="24" viewBox="0 0 24 24" xmlns="http://www.w3.org/2000/svg" fill='currentColor'><path d="M7 18H9V6H7V18ZM11 22H13V2H11V22ZM3 14H5V10H3V14ZM15 18H17V6H15V18ZM19 10V14H21V10H19Z"/></svg>
